(FlashCut-Precix-Inch Post Processor)
(Version 2, 05/12/2019)
(Brett Ian Balogh: brettbalogh@gmail.com)
G0 G17 G20 G40 G80 G90
(Engraving)
S10000 M3
G0 Z1.
X12.4752 Y17.8592
G1 Z-0.125 F15
G1 X12.1381 Y17.6728 F50
G1 X11.8136 Y17.489
G1 X11.5017 Y17.3079
G1 X11.202 Y17.1295
G1 X10.9144 Y16.9537
G1 X10.6387 Y16.7806
G1 X10.3747 Y16.6102
G1 X10.1222 Y16.4424
G1 X9.8809 Y16.2773
G1 X9.6507 Y16.1149
G1 X9.4313 Y15.9551
G1 X9.2226 Y15.798
G1 X9.0243 Y15.6436
G1 X8.8363 Y15.4919
G1 X8.6582 Y15.3429
G1 X8.49 Y15.1965
G1 X8.3314 Y15.0529
G1 X8.1823 Y14.9119
G1 X8.0423 Y14.7736
G1 X7.9113 Y14.638
G1 X7.7891 Y14.505
G1 X7.6755 Y14.3748
G1 X7.5702 Y14.2473
G1 X7.4731 Y14.1224
G1 X7.384 Y14.0003
G1 X7.3027 Y13.8808
G1 X7.2289 Y13.7641
G1 X7.1624 Y13.65
G1 X7.1031 Y13.5387
G1 X7.0507 Y13.43
G1 X7.005 Y13.3241
G1 X6.9659 Y13.2208
G1 X6.9331 Y13.1203
G1 X6.9063 Y13.0225
G1 X6.8855 Y12.9274
G1 X6.8704 Y12.835
G1 X6.8607 Y12.7453
G1 X6.8564 Y12.6584
G1 X6.8571 Y12.5741
G1 X6.8627 Y12.4926
G1 X6.8729 Y12.4138
G1 X6.8876 Y12.3377
G1 X6.9066 Y12.2643
G1 X6.9295 Y12.1937
G1 X6.9564 Y12.1258
G1 X6.9869 Y12.0605
G1 X7.0208 Y11.9978
G1 X7.058 Y11.9376
G1 X7.0984 Y11.8797
G1 X7.1417 Y11.8241
G1 X7.1878 Y11.7706
G1 X7.2365 Y11.7192
G1 X7.2876 Y11.6696
G1 X7.341 Y11.6219
G1 X7.3965 Y11.5758
G1 X7.4538 Y11.5314
G1 X7.5735 Y11.4468
G1 X7.6988 Y11.3674
G1 X7.8282 Y11.2921
G1 X7.9603 Y11.2202
G1 X8.4882 Y10.9487
G1 X8.613 Y10.8805
G1 X8.7323 Y10.8105
G1 X8.8445 Y10.7377
G1 X8.8975 Y10.7001
G1 X8.9483 Y10.6614
G1 X8.9966 Y10.6216
G1 X9.0423 Y10.5806
G1 X9.0851 Y10.5383
G1 X9.125 Y10.4946
G1 X9.1618 Y10.4493
G1 X9.1952 Y10.4023
G1 X9.2251 Y10.3536
G1 X9.2514 Y10.303
G1 X9.2738 Y10.2504
G1 X9.2922 Y10.1958
G1 X9.3067 Y10.1392
G1 X9.3175 Y10.0806
G1 X9.3246 Y10.0201
G1 X9.3281 Y9.9578
G1 X9.3283 Y9.8937
G1 X9.3252 Y9.828
G1 X9.319 Y9.7606
G1 X9.3098 Y9.6917
G1 X9.2977 Y9.6214
G1 X9.2828 Y9.5496
G1 X9.2653 Y9.4765
G1 X9.2453 Y9.4021
G1 X9.1984 Y9.2498
G1 X9.143 Y9.0932
G1 X9.0802 Y8.9329
G1 X9.011 Y8.7694
G1 X8.9365 Y8.6034
G1 X8.8576 Y8.4353
G1 X8.7754 Y8.2656
G1 X8.6052 Y7.924
G1 X8.434 Y7.5828
G1 X8.2701 Y7.2466
G1 X8.1935 Y7.0817
G1 X8.1217 Y6.9196
G1 X8.0559 Y6.761
G1 X7.9967 Y6.6062
G1 X7.9442 Y6.4553
G1 X7.8984 Y6.3085
G1 X7.8592 Y6.1657
G1 X7.8267 Y6.027
G1 X7.8007 Y5.8926
G1 X7.7813 Y5.7624
G1 X7.7684 Y5.6366
G1 X7.762 Y5.5151
G1 X7.7621 Y5.3982
G1 X7.7686 Y5.2858
G1 X7.7815 Y5.1781
G1 X7.8009 Y5.0751
G1 X7.8266 Y4.9768
G1 X7.8586 Y4.8833
G1 X7.897 Y4.7948
G1 X7.9416 Y4.7112
G1 X7.9925 Y4.6326
G1 X8.0496 Y4.5592
G1 X8.113 Y4.4909
G1 X8.1825 Y4.4279
G1 X8.2581 Y4.3702
G1 X8.3398 Y4.3179
G1 X8.4277 Y4.271
G1 X8.5215 Y4.2293
G1 X8.6214 Y4.1929
G1 X8.7272 Y4.1616
G1 X8.8388 Y4.1356
G1 X8.9564 Y4.1146
G1 X9.0797 Y4.0987
G1 X9.2089 Y4.0878
G1 X9.3437 Y4.0819
G1 X9.4842 Y4.081
G1 X9.6304 Y4.0848
G1 X9.7822 Y4.0936
G1 X9.9395 Y4.107
G1 X10.1023 Y4.1253
G1 X10.2706 Y4.1482
G1 X10.4443 Y4.1757
G1 X10.6233 Y4.2079
G1 X10.8077 Y4.2446
G1 X10.9974 Y4.2857
G1 X11.1924 Y4.3314
G1 X11.3925 Y4.3814
G1 X11.5978 Y4.4358
G1 X12.0225 Y4.5552
G1 X12.4637 Y4.684
G1 X12.918 Y4.8162
G1 X13.3825 Y4.9459
G1 X13.6175 Y5.008
G1 X13.8539 Y5.0672
G1 X14.0913 Y5.1228
G1 X14.3293 Y5.1741
G1 X14.5674 Y5.2203
G1 X14.8053 Y5.2606
G1 X15.0426 Y5.2944
G1 X15.279 Y5.3209
G1 X15.3966 Y5.3311
G1 X15.5139 Y5.3393
G1 X15.6308 Y5.3453
G1 X15.7471 Y5.3489
G1 X15.8629 Y5.3502
G1 X15.9781 Y5.349
G1 X16.0927 Y5.3453
G1 X16.2066 Y5.3389
G1 X16.3198 Y5.3297
G1 X16.4322 Y5.3176
G1 X16.5437 Y5.3027
G1 X16.6544 Y5.2847
G1 X16.7641 Y5.2639
G1 X16.8727 Y5.2404
G1 X16.9802 Y5.2144
G1 X17.0864 Y5.1863
G1 X17.1913 Y5.156
G1 X17.2947 Y5.124
G1 X17.4969 Y5.0552
G1 X17.6923 Y4.9816
G1 X17.8801 Y4.9048
G1 X18.0595 Y4.8265
G1 X18.2298 Y4.7483
G1 X18.5402 Y4.5989
G1 X18.8054 Y4.4699
G1 X18.9191 Y4.4172
G1 X19.0193 Y4.3746
G1 X19.1051 Y4.3437
G1 X19.1425 Y4.3331
G1 X19.1759 Y4.3261
G1 X19.2055 Y4.3229
G1 X19.231 Y4.3236
G1 X19.2523 Y4.3286
G1 X19.2695 Y4.3378
G1 X19.2823 Y4.3517
G1 X19.2907 Y4.3704
G1 X19.2946 Y4.3941
G1 X19.2939 Y4.4229
G1 X19.2885 Y4.4572
G1 X19.2783 Y4.4971
G1 X19.2632 Y4.5429
G1 X19.2432 Y4.5947
G1 X19.1884 Y4.7162
G1 X19.1148 Y4.8599
G1 X19.0237 Y5.0239
G1 X18.9163 Y5.2061
G1 X18.7937 Y5.4045
G1 X18.6571 Y5.6168
G1 X18.5078 Y5.8413
G1 X18.3469 Y6.0757
G1 X18.1756 Y6.318
G1 X17.9951 Y6.5662
G1 X17.8066 Y6.8183
G1 X17.6113 Y7.0721
G1 X17.4104 Y7.3257
G1 X17.205 Y7.577
G1 X16.9964 Y7.8239
G1 X16.7858 Y8.0643
G1 X16.5744 Y8.2964
G1 X16.3632 Y8.5179
G1 X16.1536 Y8.7268
G1 X16.0498 Y8.8259
G1 X15.9468 Y8.9211
G1 X15.8447 Y9.0122
G1 X15.7438 Y9.0988
G1 X15.6442 Y9.1807
G1 X15.546 Y9.2577
G1 X15.4494 Y9.3296
G1 X15.3543 Y9.3964
G1 X15.2609 Y9.4582
G1 X15.1691 Y9.5153
G1 X15.0789 Y9.5678
G1 X14.9904 Y9.6159
G1 X14.9035 Y9.6598
G1 X14.8183 Y9.6996
G1 X14.7347 Y9.7355
G1 X14.6528 Y9.7677
G1 X14.5726 Y9.7963
G1 X14.494 Y9.8216
G1 X14.4172 Y9.8436
G1 X14.342 Y9.8626
G1 X14.2685 Y9.8787
G1 X14.1968 Y9.8922
G1 X14.1267 Y9.9031
G1 X14.0584 Y9.9116
G1 X13.927 Y9.9224
G1 X13.8026 Y9.9258
G1 X13.6852 Y9.9232
G1 X13.575 Y9.9159
G1 X13.4719 Y9.9055
G1 X13.1324 Y9.8585
G1 X13.0661 Y9.8523
G1 X13.0072 Y9.8511
G1 X12.956 Y9.8562
G1 X12.9332 Y9.8616
G1 X12.9124 Y9.8691
G1 X12.8934 Y9.8788
G1 X12.8764 Y9.8909
G1 X12.8614 Y9.9053
G1 X12.8482 Y9.9219
G1 X12.8369 Y9.9406
G1 X12.8275 Y9.9614
G1 X12.82 Y9.9841
G1 X12.8143 Y10.0087
G1 X12.8084 Y10.0634
G1 X12.8098 Y10.1246
G1 X12.8184 Y10.1918
G1 X12.8341 Y10.2645
G1 X12.8567 Y10.3418
G1 X12.8863 Y10.4233
G1 X12.9226 Y10.5082
G1 X12.9656 Y10.596
G1 X13.0153 Y10.686
G1 X13.0714 Y10.7776
G1 X13.1339 Y10.8701
G1 X13.2028 Y10.963
G1 X13.2778 Y11.0556
G1 X13.359 Y11.1472
G1 X13.4462 Y11.2373
G1 X13.5393 Y11.3252
G1 X13.6383 Y11.4102
G1 X13.743 Y11.4919
G1 X13.8533 Y11.5694
G1 X13.9691 Y11.6424
G1 X14.0903 Y11.7106
G1 X14.2168 Y11.7738
G1 X14.3483 Y11.8317
G1 X14.4847 Y11.8842
G1 X14.626 Y11.9309
G1 X14.7718 Y11.9716
G1 X14.9222 Y12.0061
G1 X15.0769 Y12.0342
G1 X15.2358 Y12.0556
G1 X15.3988 Y12.0701
G1 X15.5656 Y12.0775
G1 X15.7363
G1 X15.9105 Y12.0699
G1 X16.0882 Y12.0544
G1 X16.2692 Y12.0308
G1 X16.4534 Y11.9989
G1 X16.6407 Y11.9585
G1 X16.8308 Y11.9093
G1 X17.0236 Y11.851
G1 X17.219 Y11.7835
G1 X17.4169 Y11.7065
G1 X17.617 Y11.62
G1 X17.8193 Y11.525
G1 X18.0236 Y11.4226
G1 X18.2297 Y11.3137
G1 X18.4375 Y11.1995
G1 X18.6468 Y11.0809
G1 X18.8575 Y10.9591
G1 X19.7108 Y10.4597
G1 X19.9261 Y10.3371
G1 X20.1418 Y10.2174
G1 X20.3578 Y10.1019
G1 X20.5739 Y9.9914
G1 X20.79 Y9.887
G1 X21.006 Y9.7898
G1 X21.2216 Y9.7009
G1 X21.3293 Y9.6598
G1 X21.4368 Y9.6212
G1 X21.5442 Y9.5851
G1 X21.6514 Y9.5518
G1 X21.7584 Y9.5213
G1 X21.8652 Y9.4938
G1 X21.9717 Y9.4694
G1 X22.0781 Y9.4482
G1 X22.1841 Y9.4303
G1 X22.2898 Y9.4159
G1 X22.3952 Y9.4047
G1 X22.5003 Y9.3968
G1 X22.6049 Y9.3921
G1 X22.709 Y9.3905
G1 X22.8127 Y9.392
G1 X22.9159 Y9.3966
G1 X23.0186 Y9.4042
G1 X23.1206 Y9.4147
G1 X23.222 Y9.4281
G1 X23.3228 Y9.4444
G1 X23.4229 Y9.4634
G1 X23.5223 Y9.4851
G1 X23.6209 Y9.5096
G1 X23.7187 Y9.5366
G1 X23.8156 Y9.5663
G1 X23.9117 Y9.5985
G1 X24.0069 Y9.6331
G1 X24.1012 Y9.6701
G1 X24.1945 Y9.7096
G1 X24.2867 Y9.7513
G1 X24.378 Y9.7953
G1 X24.4681 Y9.8415
G1 X24.5571 Y9.8899
G1 X24.645 Y9.9403
G1 X24.7317 Y9.9929
G1 X24.8172 Y10.0474
G1 X24.9014 Y10.1039
G1 X24.9843 Y10.1622
G1 X25.0659 Y10.2224
G1 X25.1462 Y10.2844
G1 X25.225 Y10.3482
G1 X25.3024 Y10.4136
G1 X25.3783 Y10.4807
G1 X25.4527 Y10.5493
G1 X25.5256 Y10.6195
G1 X25.5969 Y10.6912
G1 X25.6666 Y10.7643
G1 X25.7346 Y10.8387
G1 X25.801 Y10.9145
G1 X25.8656 Y10.9916
G1 X25.9285 Y11.0698
G1 X25.9896 Y11.1493
G1 X26.0489 Y11.2298
G1 X26.1063 Y11.3114
G1 X26.1619 Y11.394
G1 X26.2157 Y11.4776
G1 X26.3176 Y11.6474
G1 X26.4123 Y11.8203
G1 X26.4997 Y11.9959
G1 X26.5798 Y12.1738
G1 X26.6527 Y12.3536
G1 X26.7184 Y12.5348
G1 X26.777 Y12.7169
G1 X26.8285 Y12.8996
G1 X26.8729 Y13.0824
G1 X26.9103 Y13.2649
G1 X26.9407 Y13.4467
G1 X26.9641 Y13.6272
G1 X26.9806 Y13.8061
G1 X26.9901 Y13.9829
G1 X26.9928 Y14.1573
G1 X26.9887 Y14.3287
G1 X26.9778 Y14.4967
G1 X26.9602 Y14.6609
G1 X26.9358 Y14.8209
G1 X26.9047 Y14.9762
G1 X26.867 Y15.1264
G1 X26.8226 Y15.2712
G1 X26.7979 Y15.3415
G1 X26.7716 Y15.4104
G1 X26.7436 Y15.4778
G1 X26.7139 Y15.5438
G1 X26.6826 Y15.6083
G1 X26.6496 Y15.6713
G1 X26.615 Y15.7328
G1 X26.5786 Y15.7928
G1 X26.5407 Y15.8512
G1 X26.501 Y15.908
G1 X26.4597 Y15.9633
G1 X26.4167 Y16.0169
G1 X26.372 Y16.069
G1 X26.3257 Y16.1193
G1 X26.2777 Y16.168
G1 X26.228 Y16.215
G1 X26.1767 Y16.2603
G1 X26.1236 Y16.3039
G1 X26.0689 Y16.3458
G1 X26.0126 Y16.3858
G1 X25.9545 Y16.4241
G1 X25.8948 Y16.4606
G1 X25.8334 Y16.4953
G1 X25.7703 Y16.5282
G1 X25.7055 Y16.5591
G1 X25.6391 Y16.5882
G1 X25.5709 Y16.6155
G1 X25.5011 Y16.6407
G1 X25.4296 Y16.6641
G1 X25.3564 Y16.6855
G1 X25.2816 Y16.7049
G1 X25.205 Y16.7224
G1 X25.1268 Y16.7378
G1 X25.0468 Y16.7512
G1 X24.9652 Y16.7626
G1 X24.8819 Y16.7719
G1 X24.7969 Y16.7791
G1 X24.7102 Y16.7842
G1 X24.6218 Y16.7871
G1 X24.5318 Y16.7879
G1 X24.44 Y16.7866
G1 X24.3465 Y16.7831
G1 X24.1546 Y16.7697
G1 X23.9567 Y16.7485
G1 X23.7533 Y16.7206
G1 X23.5451 Y16.6868
G1 X23.3327 Y16.6483
G1 X23.1168 Y16.6059
G1 X22.6771 Y16.5133
G1 X22.231 Y16.417
G1 X21.7836 Y16.3247
G1 X21.5611 Y16.2824
G1 X21.3402 Y16.2441
G1 X21.1216 Y16.2106
G1 X20.9058 Y16.183
G1 X20.6936 Y16.1621
G1 X20.4856 Y16.1491
G1 X20.3834 Y16.1458
G1 X20.2824 Y16.1448
G1 X20.1828 Y16.1462
G1 X20.0847 Y16.1502
G1 X19.9881 Y16.1569
G1 X19.8931 Y16.1663
G1 X19.7998 Y16.1787
G1 X19.7083 Y16.1941
G1 X19.6186 Y16.2127
G1 X19.5307 Y16.2344
G1 X19.4447 Y16.2591
G1 X19.3604 Y16.2867
G1 X19.2778 Y16.3172
G1 X19.1969 Y16.3503
G1 X19.1176 Y16.3861
G1 X19.0399 Y16.4243
G1 X18.9637 Y16.465
G1 X18.8889 Y16.5079
G1 X18.8156 Y16.553
G1 X18.7437 Y16.6002
G1 X18.6731 Y16.6493
G1 X18.6039 Y16.7003
G1 X18.469 Y16.8075
G1 X18.3388 Y16.9208
G1 X18.2128 Y17.0395
G1 X18.0907 Y17.1626
G1 X17.9721 Y17.2894
G1 X17.8567 Y17.419
G1 X17.744 Y17.5504
G1 X17.5255 Y17.8158
G1 X17.3138 Y18.0788
G1 X17.1057 Y18.3326
G1 X17.0022 Y18.4539
G1 X16.8985 Y18.5704
G1 X16.7942 Y18.6812
G1 X16.6893 Y18.7857
G1 X16.5836 Y18.8836
G1 X16.4771 Y18.9745
G1 X16.3699 Y19.0579
G1 X16.2618 Y19.1336
G1 X16.1528 Y19.2012
G1 X16.043 Y19.2601
G1 X15.9878 Y19.2863
G1 X15.9323 Y19.3102
G1 X15.8766 Y19.3318
G1 X15.8206 Y19.351
G1 X15.7644 Y19.3678
G1 X15.708 Y19.3821
G1 X15.6513 Y19.394
G1 X15.5944 Y19.4032
G1 X15.5372 Y19.4099
G1 X15.4798 Y19.4139
G1 X15.422 Y19.4152
G1 X15.3641 Y19.4137
G1 X15.3058 Y19.4095
G1 X15.2473 Y19.4024
G1 X15.1886 Y19.3925
G1 X15.1295 Y19.3796
G1 X15.0702 Y19.3637
G1 X15.0105 Y19.3447
G1 X14.9506 Y19.3228
G1 X14.8904 Y19.2976
G1 X14.8299 Y19.2694
G1 X14.7691 Y19.2378
G1 X14.708 Y19.2031
G1 X14.6466 Y19.165
G1 X14.5849 Y19.1235
G1 X14.5229 Y19.0787
G1 X14.4606 Y19.0304
G1 X14.3979 Y18.9786
G1 X14.3349 Y18.9232
G1 X14.2716 Y18.8643
G1 X14.208 Y18.8018
G1 X14.1442 Y18.7359
G1 X14.0163 Y18.5946
G1 X13.8882 Y18.4414
G1 X13.7607 Y18.2775
G1 X13.6343 Y18.104
G1 X13.5095 Y17.922
G1 X13.3868 Y17.7327
G1 X13.2669 Y17.5372
G1 X13.1502 Y17.3366
G1 X13.0373 Y17.1321
G1 X12.9288 Y16.9247
G1 X12.8252 Y16.7157
G1 X12.727 Y16.5061
G1 X12.6349 Y16.297
G1 X12.5493 Y16.0897
G1 X12.4709 Y15.8852
G1 X12.4001 Y15.6846
G1 X12.3375 Y15.4892
G1 X12.2837 Y15.2999
G1 X12.2392 Y15.118
G1 X12.2046 Y14.9446
G1 X12.1912 Y14.8614
G1 X12.1804 Y14.7808
G1 X12.1723 Y14.7028
G1 X12.167 Y14.6274
G1 X12.1642 Y14.5547
G1 X12.164 Y14.4845
G1 X12.1663 Y14.4169
G1 X12.1711 Y14.3519
G1 X12.1782 Y14.2893
G1 X12.1877 Y14.2292
G1 X12.1995 Y14.1716
G1 X12.2134 Y14.1164
G1 X12.2296 Y14.0635
G1 X12.2479 Y14.0131
G1 X12.2682 Y13.965
G1 X12.2905 Y13.9191
G1 X12.3148 Y13.8756
G1 X12.341 Y13.8343
G1 X12.369 Y13.7953
G1 X12.3988 Y13.7584
G1 X12.4302 Y13.7238
G1 X12.4634 Y13.6912
G1 X12.4982 Y13.6608
G1 X12.5345 Y13.6325
G1 X12.5723 Y13.6062
G1 X12.6115 Y13.582
G1 X12.6522 Y13.5597
G1 X12.6941 Y13.5395
G1 X12.7374 Y13.5212
G1 X12.7818 Y13.5048
G1 X12.8274 Y13.4903
G1 X12.8741 Y13.4777
G1 X12.9706 Y13.4579
G1 X13.0708 Y13.4453
G1 X13.1743 Y13.4396
G1 X13.2807 Y13.4406
G1 X13.3894 Y13.4481
G1 X13.5001 Y13.4618
G1 X13.6123 Y13.4815
G1 X13.7255 Y13.507
G1 X13.8397 Y13.5379
G1 X13.9548 Y13.5734
G1 X14.0708 Y13.6129
G1 X14.1876 Y13.656
G1 X14.4239 Y13.7501
G1 X14.9065 Y13.9534
G1 X15.1525 Y14.053
G1 X15.2766 Y14.1001
G1 X15.4014 Y14.1447
G1 X15.527 Y14.186
G1 X15.6532 Y14.2236
G1 X15.7801 Y14.2569
G1 X15.9077 Y14.2851
G1 X16.0359 Y14.3078
G1 X16.1648 Y14.3242
G1 X16.2943 Y14.3339
G1 X16.4244 Y14.3361
G1 X16.5551 Y14.3309
G1 X16.6868 Y14.3185
G1 X16.8195 Y14.2992
G1 X16.9534 Y14.2734
G1 X17.0888 Y14.2415
G1 X17.2258 Y14.2037
G1 X17.3647 Y14.1604
G1 X17.5055 Y14.1119
G1 X17.6485 Y14.0585
G1 X17.7938 Y14.0007
G1 X17.9417 Y13.9386
G1 X18.0923 Y13.8728
G1 X18.4025 Y13.7309
G1 X18.7259 Y13.5776
G1 X19.4181 Y13.2478
G1 X19.7899 Y13.0766
G1 X19.9827 Y12.9908
G1 X20.1797 Y12.906
G1 X20.3805 Y12.8234
G1 X20.5846 Y12.7439
G1 X20.7917 Y12.6685
G1 X21.0014 Y12.5984
G1 X21.2131 Y12.5345
G1 X21.4266 Y12.4779
G1 X21.5338 Y12.4527
G1 X21.6413 Y12.4296
G1 X21.749 Y12.4089
G1 X21.8569 Y12.3907
G1 X21.9649 Y12.375
G1 X22.073 Y12.3621
G1 X22.181 Y12.3521
G1 X22.2891 Y12.345
G1 X22.397 Y12.341
G1 X22.5048 Y12.3403
G1 X22.6123 Y12.343
G1 X22.7197 Y12.3491
G1 X22.8267 Y12.3589
G1 X22.9333 Y12.3725
G1 X23.0396 Y12.39
G1 X23.1454 Y12.4114
G1 X23.2507 Y12.4371
G1 X23.3554 Y12.467
G1 X23.4595 Y12.5013
G1 X23.5629 Y12.5402
G1 X23.6656 Y12.5837
G1 X23.7675 Y12.632
G1 X23.8687 Y12.6853
G1 X23.9689 Y12.7436
G1 X24.0682 Y12.8071
G1 X24.1665 Y12.876
G1 X24.2638 Y12.9502
G1 X24.36 Y13.0301
G0 Z1.
M05
M30
